app/img/src/KF_logo.svg

<svg width="149" height="24" viewBox="0 0 149 24" fill="none" xmlns="http://www.w3.org/2000/svg">
<path d="M31.344 18.2668H27.4744V2.45432H31.344V9.24495H32.0229L36.3483 2.45432H40.4022L35.0778 10.3314L40.9356 18.2668H36.5907L31.9453 11.6217H31.344V18.2668Z" fill="black"/>
<path d="M51.2161 17.5974C50.5761 17.9143 49.9392 18.1471 49.3056 18.2959C48.672 18.4511 48.0028 18.5287 47.298 18.5287C46.3735 18.5287 45.5329 18.4026 44.7765 18.1504C44.02 17.8981 43.3735 17.5295 42.8368 17.0445C42.3002 16.5594 41.8832 15.9644 41.5857 15.2595C41.2883 14.5481 41.1396 13.7397 41.1396 12.8343C41.1396 11.7801 41.2657 10.8456 41.5179 10.0307C41.7765 9.20938 42.1515 8.52385 42.6429 7.97413C43.1407 7.41795 43.7517 6.99757 44.4758 6.71302C45.2 6.42199 46.034 6.27648 46.978 6.27648C47.7603 6.27648 48.4489 6.40905 49.0437 6.67421C49.645 6.93937 50.1493 7.308 50.5567 7.78011C50.964 8.25222 51.2711 8.81487 51.478 9.46807C51.6914 10.1213 51.798 10.8359 51.798 11.612C51.798 11.8901 51.798 12.1714 51.798 12.4559C51.798 12.734 51.8013 13.0154 51.8077 13.2999H44.9123C44.9252 13.7074 44.9931 14.0825 45.1159 14.4252C45.2452 14.7615 45.423 15.0525 45.6493 15.2983C45.8821 15.5376 46.1601 15.7251 46.4834 15.861C46.8131 15.9968 47.1817 16.0647 47.589 16.0647C48.1709 16.0647 48.7011 15.9903 49.1795 15.8416C49.6644 15.6928 50.1202 15.4632 50.547 15.1528L51.2161 17.5974ZM48.8401 11.5344C48.8401 10.5707 48.6817 9.8658 48.3648 9.41956C48.0545 8.97332 47.5631 8.73727 46.8907 8.7114C46.5416 8.73727 46.2409 8.82781 45.9888 8.98302C45.7366 9.13824 45.5297 9.34196 45.3681 9.59418C45.2064 9.83994 45.0868 10.1277 45.0092 10.4576C44.9381 10.7874 44.9026 11.1366 44.9026 11.5053H48.8401V11.5344Z" fill="black"/>
<path d="M52.2058 6.64511H55.9687L58.6454 14.3961L60.4687 6.64511H64.1734L60.2456 18.5869C60.0129 19.2983 59.7381 19.9224 59.4213 20.4592C59.1045 21.0024 58.7198 21.4584 58.2672 21.827C57.8211 22.1956 57.2941 22.4737 56.6864 22.6613C56.0786 22.8553 55.3674 22.9555 54.5527 22.962L53.5247 20.4786C54.1713 20.4333 54.695 20.3525 55.0958 20.2361C55.5032 20.1261 55.8329 19.9644 56.0851 19.751C56.3372 19.5441 56.5344 19.2821 56.6767 18.9652C56.8189 18.6483 56.9482 18.2668 57.0646 17.8205L52.2058 6.64511Z" fill="black"/>
<path d="M69.1296 18.2668H65.2697V2.45432H76.2482V4.88925H69.1296V8.91512H75.3559V11.2918H69.1296V18.2668Z" fill="black"/>
<path d="M81.2335 18.2668H77.5578V1.35812L81.2335 0.863379V18.2668Z" fill="black"/>
<path d="M84.0173 18.2668V6.64511H87.6735V18.2668H84.0173ZM83.8233 2.02749C83.8233 1.74293 83.875 1.47777 83.9785 1.23201C84.0819 0.986257 84.2242 0.772838 84.4052 0.591754C84.5927 0.404204 84.8061 0.25869 85.0453 0.155214C85.291 0.0517381 85.5561 0 85.8405 0C86.1186 0 86.3804 0.0517381 86.6261 0.155214C86.8718 0.25869 87.0884 0.40097 87.2759 0.582053C87.4634 0.763137 87.6121 0.97979 87.722 1.23201C87.8319 1.47777 87.8869 1.74293 87.8869 2.02749C87.8869 2.31851 87.8319 2.5869 87.722 2.83266C87.6121 3.07842 87.4602 3.29184 87.2662 3.47292C87.0787 3.654 86.8621 3.79628 86.6164 3.89976C86.3707 3.99677 86.1121 4.04527 85.8405 4.04527C85.5496 4.04527 85.278 3.99353 85.0259 3.89006C84.7802 3.78658 84.5668 3.6443 84.3858 3.46322C84.2112 3.28213 84.0722 3.06871 83.9688 2.82296C83.8718 2.5772 83.8233 2.31205 83.8233 2.02749Z" fill="black"/>
<path d="M94.5209 21.342C95.2774 21.342 95.8787 21.2999 96.3248 21.2158C96.7709 21.1382 97.1071 21.0251 97.3334 20.8763C97.5597 20.734 97.7052 20.5627 97.7698 20.3622C97.8345 20.1617 97.8668 19.9386 97.8668 19.6928C97.8668 19.4147 97.8183 19.1916 97.7213 19.0234C97.6243 18.8553 97.4336 18.7162 97.1491 18.6063C96.8711 18.4964 96.4799 18.4026 95.9756 18.325C95.4713 18.2474 94.8118 18.1633 93.9972 18.0728C93.8355 18.1245 93.6578 18.228 93.4638 18.3832C93.2698 18.5384 93.0888 18.713 92.9207 18.907C92.759 19.1075 92.6233 19.3145 92.5134 19.5279C92.4034 19.7413 92.3485 19.9321 92.3485 20.1002C92.3485 20.4107 92.4196 20.65 92.5618 20.8181C92.7041 20.9863 92.8819 21.1091 93.0952 21.1867C93.3151 21.2643 93.5511 21.3096 93.8032 21.3226C94.0618 21.3355 94.3011 21.342 94.5209 21.342ZM95.5101 12.0873C95.6459 12.0744 95.7914 12.0129 95.9465 11.903C96.1017 11.7866 96.2472 11.6443 96.383 11.4762C96.5187 11.3015 96.6287 11.1075 96.7127 10.8941C96.8032 10.6807 96.8485 10.4705 96.8485 10.2635C96.8485 9.73323 96.7062 9.34519 96.4218 9.09943C96.1373 8.84721 95.7041 8.7211 95.1222 8.7211C94.8118 8.7211 94.5403 8.7502 94.3075 8.80841C94.0812 8.86015 93.8937 8.95069 93.745 9.08003C93.6028 9.20291 93.4961 9.37106 93.425 9.58448C93.3539 9.79143 93.3183 10.0534 93.3183 10.3703C93.3183 10.7583 93.3894 11.1108 93.5317 11.4276C93.6739 11.7381 93.9196 11.9871 94.2687 12.1746L95.5101 12.0873ZM99.2343 8.62409C99.6545 9.26435 99.8646 9.76233 99.8646 10.118C99.8646 10.3832 99.8388 10.658 99.7871 10.9426C99.7418 11.2272 99.6578 11.5085 99.5349 11.7866C99.4121 12.0647 99.2472 12.3331 99.0403 12.5918C98.8399 12.844 98.5845 13.0736 98.2741 13.2805C97.9703 13.4875 97.6082 13.6621 97.1879 13.8044C96.7677 13.9466 96.2795 14.0437 95.7235 14.0954L92.7267 14.3476L92.9013 15.5311L95.5683 15.7445C96.4864 15.8286 97.2881 15.9677 97.9735 16.1617C98.6653 16.3492 99.2407 16.6047 99.6998 16.9281C100.159 17.2514 100.502 17.6492 100.728 18.1213C100.961 18.5934 101.077 19.1496 101.077 19.7898C101.077 21.1609 100.544 22.2053 99.4767 22.9232C98.4164 23.6411 96.7968 24 94.6179 24C93.6674 24 92.8625 23.9321 92.203 23.7963C91.55 23.6605 91.0198 23.4471 90.6125 23.156C90.2052 22.865 89.911 22.4931 89.7299 22.0404C89.5489 21.5877 89.4584 21.0477 89.4584 20.4204C89.4584 20.1358 89.5069 19.8577 89.6039 19.5861C89.7073 19.3145 89.8496 19.0525 90.0306 18.8003C90.2181 18.5546 90.4379 18.325 90.6901 18.1116C90.9487 17.8917 91.2332 17.6977 91.5435 17.5295C90.9358 17.4778 90.4799 17.2514 90.1761 16.8504C89.8787 16.4495 89.7299 15.8901 89.7299 15.1722C89.7299 14.823 89.7752 14.5255 89.8657 14.2797C89.9627 14.034 90.1146 13.8205 90.3215 13.6395C90.5284 13.4519 90.8 13.2902 91.1362 13.1544C91.4789 13.0121 91.8991 12.8795 92.397 12.7567C92.0478 12.7502 91.7278 12.6985 91.4368 12.6015C91.1524 12.498 90.9067 12.346 90.6998 12.1455C90.4929 11.945 90.3312 11.6993 90.2149 11.4082C90.1049 11.1172 90.05 10.7809 90.05 10.3994C90.05 9.75909 90.1599 9.18351 90.3797 8.6726C90.606 8.16168 90.9228 7.72837 91.3302 7.37268C91.744 7.01698 92.2386 6.74535 92.814 6.5578C93.3959 6.37025 94.0424 6.27648 94.7537 6.27648C95.4778 6.27648 96.0953 6.32821 96.606 6.43169C97.1233 6.5287 97.5403 6.67098 97.8571 6.85853C98.3614 6.63217 98.8884 6.48019 99.4379 6.40259C99.994 6.31851 100.579 6.27648 101.193 6.27648H101.717V8.62409H99.2343Z" fill="black"/>
<path d="M106.247 7.6055C106.389 7.40501 106.567 7.22393 106.78 7.06225C107 6.8941 107.239 6.75182 107.498 6.63541C107.763 6.519 108.047 6.43169 108.351 6.37348C108.661 6.30881 108.981 6.27648 109.311 6.27648C109.971 6.27648 110.559 6.37995 111.076 6.5869C111.593 6.79386 112.027 7.09458 112.376 7.48909C112.731 7.88359 113.003 8.37187 113.19 8.95392C113.378 9.52951 113.472 10.1859 113.472 10.9232V18.2668H109.806V10.6613C109.806 10.3638 109.761 10.0954 109.67 9.8561C109.579 9.61035 109.46 9.4034 109.311 9.23525C109.169 9.0671 109.001 8.93775 108.807 8.84721C108.619 8.75667 108.429 8.7114 108.235 8.7114C107.892 8.7114 107.617 8.72757 107.41 8.7599C107.21 8.79224 107.042 8.84074 106.906 8.90542C106.777 8.96362 106.664 9.038 106.567 9.12854C106.476 9.21261 106.369 9.30639 106.247 9.40986V18.2668H102.59V1.46483L106.247 0.843977V7.6055Z" fill="black"/>
<path d="M120.077 18.5287C119.495 18.5287 118.971 18.4414 118.506 18.2668C118.04 18.0857 117.642 17.8044 117.313 17.4228C116.989 17.0348 116.74 16.5368 116.566 15.9289C116.391 15.3145 116.304 14.574 116.304 13.7074V8.13905H114.18V6.64511H116.372V2.24091L119.951 1.36783V6.64511H123.219V8.13905H119.951V13.9499C119.951 14.2474 119.97 14.5255 120.009 14.7842C120.054 15.0364 120.122 15.2595 120.212 15.4535C120.303 15.6411 120.423 15.7898 120.571 15.8998C120.726 16.0097 120.914 16.0647 121.134 16.0647C121.27 16.0647 121.409 16.0453 121.551 16.0065C121.693 15.9677 121.832 15.9192 121.968 15.861C122.11 15.7963 122.243 15.7284 122.365 15.6572C122.488 15.5796 122.595 15.5085 122.685 15.4438L123.52 17.6362C123.5 17.6492 123.406 17.7041 123.238 17.8011C123.07 17.8917 122.837 17.9919 122.54 18.1019C122.249 18.2118 121.893 18.3088 121.473 18.3929C121.059 18.4834 120.594 18.5287 120.077 18.5287Z" fill="black"/>
<path d="M125.479 17.8011C125.091 17.4325 124.897 16.9604 124.897 16.3848C124.897 16.1196 124.946 15.8642 125.043 15.6184C125.14 15.3727 125.275 15.156 125.45 14.9685C125.624 14.7745 125.828 14.6225 126.061 14.5125C126.3 14.3961 126.559 14.3379 126.837 14.3379C127.121 14.3379 127.386 14.3929 127.632 14.5028C127.878 14.6128 128.088 14.7615 128.262 14.9491C128.443 15.1366 128.586 15.3565 128.689 15.6087C128.793 15.8545 128.844 16.1132 128.844 16.3848C128.844 16.6694 128.793 16.9345 128.689 17.1803C128.586 17.4196 128.443 17.6297 128.262 17.8108C128.081 17.9919 127.868 18.1342 127.622 18.2377C127.377 18.3411 127.115 18.3929 126.837 18.3929C126.268 18.3929 125.815 18.1956 125.479 17.8011Z" fill="black"/>
<path d="M131.57 18.2668V6.64511H135.226V18.2668H131.57ZM131.376 2.02749C131.376 1.74293 131.428 1.47777 131.531 1.23201C131.635 0.986257 131.777 0.772838 131.958 0.591754C132.145 0.404204 132.359 0.25869 132.598 0.155214C132.844 0.0517381 133.109 0 133.393 0C133.671 0 133.933 0.0517381 134.179 0.155214C134.424 0.25869 134.641 0.40097 134.828 0.582053C135.016 0.763137 135.165 0.97979 135.275 1.23201C135.385 1.47777 135.439 1.74293 135.439 2.02749C135.439 2.31851 135.385 2.5869 135.275 2.83266C135.165 3.07842 135.013 3.29184 134.819 3.47292C134.631 3.654 134.415 3.79628 134.169 3.89976C133.923 3.99677 133.665 4.04527 133.393 4.04527C133.102 4.04527 132.831 3.99353 132.578 3.89006C132.333 3.78658 132.119 3.6443 131.938 3.46322C131.764 3.28213 131.625 3.06871 131.521 2.82296C131.424 2.5772 131.376 2.31205 131.376 2.02749Z" fill="black"/>
<path d="M142.743 16.0453C143.085 16.0453 143.386 15.9806 143.645 15.8513C143.903 15.7154 144.12 15.502 144.294 15.211C144.469 14.92 144.602 14.5449 144.692 14.0857C144.783 13.62 144.828 13.0574 144.828 12.3977C144.828 11.7445 144.783 11.1851 144.692 10.7195C144.602 10.2474 144.469 9.86257 144.294 9.56508C144.12 9.26758 143.903 9.05093 143.645 8.91512C143.386 8.77284 143.085 8.7017 142.743 8.7017C142.4 8.7017 142.099 8.77284 141.841 8.91512C141.582 9.05093 141.366 9.26758 141.191 9.56508C141.023 9.86257 140.894 10.2441 140.803 10.7098C140.719 11.1754 140.677 11.7381 140.677 12.3977C140.677 12.6694 140.683 12.9475 140.696 13.232C140.709 13.5166 140.738 13.7947 140.784 14.0663C140.835 14.3314 140.906 14.5837 140.997 14.823C141.088 15.0558 141.207 15.2627 141.356 15.4438C141.511 15.6249 141.702 15.7704 141.928 15.8804C142.154 15.9838 142.426 16.0388 142.743 16.0453ZM148.474 12.4268C148.474 13.4099 148.345 14.2797 148.086 15.0364C147.834 15.793 147.463 16.4301 146.971 16.9475C146.48 17.4584 145.878 17.8464 145.167 18.1116C144.463 18.3767 143.654 18.5093 142.743 18.5093C141.838 18.5093 141.029 18.3767 140.318 18.1116C139.607 17.8464 139.006 17.4584 138.514 16.9475C138.023 16.4301 137.648 15.793 137.389 15.0364C137.131 14.2797 137.001 13.4099 137.001 12.4268C137.001 11.4309 137.131 10.5513 137.389 9.7882C137.654 9.01859 138.033 8.3751 138.524 7.85772C139.015 7.33387 139.617 6.93937 140.328 6.67421C141.039 6.40259 141.841 6.26677 142.733 6.26677C143.625 6.26677 144.424 6.40259 145.128 6.67421C145.84 6.93937 146.441 7.33387 146.932 7.85772C147.43 8.3751 147.812 9.01859 148.077 9.7882C148.342 10.5513 148.474 11.4309 148.474 12.4268Z" fill="black"/>
<path fill-rule="evenodd" clip-rule="evenodd" d="M16.4203 12.9856C18.4646 11.8008 18.4646 8.83885 16.4203 7.65407L4.59954 0.803093C2.5553 -0.381684 0 1.09929 0 3.46885V8.22086L0.00950841 8.2761C0.0516423 8.97395 0.71626 9.08199 0.913604 9.08199H3.8343C3.95271 9.08199 3.99217 9.00918 3.95271 8.93637L2.13714 3.76668C2.09767 3.54824 2.21608 3.36621 2.45289 3.36621H3.55802C3.79483 3.36621 3.99217 3.47543 4.11058 3.65746L7.46543 8.86355C7.54437 9.00918 7.70224 9.08199 7.86012 9.08199H11.6491C13.7804 9.08199 13.8199 11.5576 11.6491 11.5576H7.86012C7.70224 11.5576 7.54437 11.594 7.46543 11.7396L4.11058 16.9822C3.99217 17.1642 3.79483 17.2734 3.55802 17.2734H2.45289C2.21608 17.2734 2.09767 17.0914 2.13714 16.8729L3.95271 11.7032C4.03164 11.594 3.95271 11.5576 3.8343 11.5576H0.913604C0.716259 11.5576 0.0937759 11.6835 0.00567789 12.3956L0 12.3981V17.1708C0 19.5404 2.5553 21.0213 4.59954 19.8365L16.4203 12.9856Z" fill="url(#paint0_linear)"/>
<defs>
<linearGradient id="paint0_linear" x1="18.9509" y1="10.3198" x2="-5.98451" y2="10.3198" gradientUnits="userSpaceOnUse">
<stop stop-color="#85D5F4"/>
<stop offset="1" stop-color="#60AAC8"/>
</linearGradient>
</defs>
</svg>

<svg width="149" height="24" fill="none" xmlns="http://www.w3.org/2000/svg"><path d="M31.344 18.267h-3.87V2.454h3.87v6.79h.679l4.325-6.79h4.054l-5.324 7.877 5.858 7.936H36.59l-4.646-6.645h-.601v6.645zM51.216 17.597c-.64.317-1.277.55-1.91.699a8.413 8.413 0 01-2.008.233c-.925 0-1.765-.126-2.522-.379a5.398 5.398 0 01-1.94-1.105 4.979 4.979 0 01-1.25-1.786c-.298-.71-.446-1.52-.446-2.425 0-1.054.126-1.988.378-2.803.258-.822.633-1.507 1.125-2.057a4.752 4.752 0 011.833-1.261c.724-.291 1.558-.437 2.502-.437.782 0 1.47.133 2.066.398a4.21 4.21 0 011.513 1.106 4.74 4.74 0 01.921 1.688 6.87 6.87 0 01.32 2.144v.844c0 .278.003.56.01.844h-6.896c.013.407.081.782.204 1.125.13.336.307.627.533.873.233.24.511.427.834.563.33.136.699.204 1.106.204.582 0 1.112-.075 1.59-.223.485-.15.941-.379 1.368-.69l.67 2.445zm-2.376-6.063c0-.963-.158-1.668-.475-2.114-.31-.447-.802-.683-1.474-.709-.35.026-.65.117-.902.272-.252.155-.46.359-.62.611a2.668 2.668 0 00-.36.864c-.07.33-.106.679-.106 1.047h3.937v.03zM52.206 6.645h3.763l2.676 7.751 1.824-7.75h3.704l-3.927 11.94a9.476 9.476 0 01-.825 1.873c-.316.543-.701 1-1.154 1.368a4.564 4.564 0 01-1.58.834c-.608.194-1.32.294-2.134.301l-1.028-2.483c.646-.046 1.17-.127 1.57-.243.408-.11.738-.272.99-.485.252-.207.45-.469.592-.786.142-.317.271-.698.388-1.145l-4.86-11.175zM69.13 18.267h-3.86V2.454h10.978V4.89H69.13v4.026h6.226v2.377H69.13v6.975zM81.234 18.267h-3.676V1.358l3.675-.495v17.404zM84.017 18.267V6.645h3.657v11.622h-3.657zm-.194-16.24a2.028 2.028 0 01.582-1.435c.188-.188.401-.333.64-.437.246-.103.511-.155.796-.155.278 0 .54.052.785.155a2.1 2.1 0 01.65.427c.187.181.336.398.446.65.11.246.165.51.165.795a1.95 1.95 0 01-.62 1.446 2.1 2.1 0 01-.65.427 2.093 2.093 0 01-.776.145c-.291 0-.563-.051-.815-.155a1.983 1.983 0 01-.64-.427 2.067 2.067 0 01-.417-.64 2.147 2.147 0 01-.146-.796zM94.52 21.342c.757 0 1.359-.042 1.805-.126.446-.078.782-.19 1.008-.34.227-.142.372-.313.437-.514.065-.2.097-.423.097-.67 0-.277-.049-.5-.146-.669-.097-.168-.287-.307-.572-.417-.278-.11-.67-.203-1.173-.281a49.47 49.47 0 00-1.979-.252c-.162.052-.34.155-.533.31-.194.155-.375.33-.543.524-.162.2-.298.407-.408.62-.11.214-.165.405-.165.573 0 .31.072.55.214.718.142.168.32.291.533.369.22.077.456.123.708.136.259.012.498.019.718.019zm.99-9.255a.922.922 0 00.436-.184c.156-.116.301-.259.437-.427a2.34 2.34 0 00.33-.582c.09-.213.136-.424.136-.63 0-.53-.143-.919-.427-1.165-.285-.252-.718-.378-1.3-.378-.31 0-.582.03-.814.087a1.272 1.272 0 00-.563.272 1.114 1.114 0 00-.32.504 2.454 2.454 0 00-.107.786c0 .388.071.74.214 1.058.142.31.388.56.737.747l1.241-.088zm3.724-3.463c.42.64.63 1.138.63 1.494 0 .265-.025.54-.077.825-.045.284-.13.566-.252.844a3.652 3.652 0 01-.495.805c-.2.252-.456.482-.766.688a4.462 4.462 0 01-1.086.524c-.42.143-.909.24-1.465.291l-2.996.253.174 1.183 2.667.213c.918.085 1.72.224 2.406.418.691.187 1.267.443 1.726.766.459.323.802.721 1.028 1.193.233.472.349 1.029.349 1.669 0 1.37-.533 2.415-1.6 3.133-1.06.718-2.68 1.077-4.86 1.077-.95 0-1.755-.068-2.414-.204-.653-.136-1.183-.349-1.59-.64a2.48 2.48 0 01-.883-1.116c-.181-.452-.272-.992-.272-1.62 0-.284.049-.562.146-.834.103-.271.246-.534.427-.786a4.4 4.4 0 01.66-.688c.258-.22.542-.414.852-.582-.607-.052-1.063-.279-1.367-.68-.297-.4-.446-.96-.446-1.678 0-.349.045-.647.136-.892.097-.246.249-.46.456-.64.206-.188.478-.35.814-.486a8.878 8.878 0 011.261-.397 3.212 3.212 0 01-.96-.155 2.054 2.054 0 01-.737-.457 2.091 2.091 0 01-.485-.737 2.843 2.843 0 01-.165-1.009c0-.64.11-1.215.33-1.726a3.68 3.68 0 01.95-1.3 4.281 4.281 0 011.484-.815 6.3 6.3 0 011.94-.282c.724 0 1.341.052 1.852.156.517.097.934.239 1.251.427a5.833 5.833 0 011.58-.456 11.737 11.737 0 011.756-.127h.524v2.348h-2.483zM106.247 7.606c.142-.201.32-.382.533-.544a3.623 3.623 0 011.571-.689c.31-.064.63-.097.96-.097.66 0 1.248.104 1.765.31.517.208.951.509 1.3.903.355.395.627.883.814 1.465.188.576.282 1.232.282 1.97v7.343h-3.666V10.66c0-.297-.045-.566-.136-.805a1.939 1.939 0 00-.359-.62 1.464 1.464 0 00-.504-.389 1.304 1.304 0 00-.572-.136 5.58 5.58 0 00-.825.049c-.2.032-.368.08-.504.145a1.239 1.239 0 00-.339.224 10.22 10.22 0 01-.32.28v8.858h-3.657V1.465l3.657-.621v6.762zM120.077 18.529a4.445 4.445 0 01-1.571-.262 2.977 2.977 0 01-1.193-.844c-.324-.388-.573-.886-.747-1.494-.175-.614-.262-1.355-.262-2.222V8.14h-2.124V6.645h2.192V2.241l3.579-.873v5.277h3.268V8.14h-3.268v5.81c0 .298.019.576.058.835.045.252.113.475.203.67.091.187.211.336.359.446.155.11.343.165.563.165.136 0 .275-.02.417-.059a3.208 3.208 0 00.814-.349 6.48 6.48 0 00.32-.213l.835 2.192c-.02.013-.114.068-.282.165a5.71 5.71 0 01-.698.3c-.291.11-.647.208-1.067.292-.414.09-.879.136-1.396.136zM125.479 17.801c-.388-.368-.582-.84-.582-1.416 0-.265.049-.52.146-.767.097-.245.232-.462.407-.65.174-.194.378-.345.611-.456a1.75 1.75 0 01.776-.174 1.927 1.927 0 011.425.611c.181.188.324.408.427.66.104.245.155.504.155.776 0 .284-.051.55-.155.795a1.98 1.98 0 01-1.067 1.057 2 2 0 01-.785.156c-.569 0-1.022-.197-1.358-.592zM131.57 18.267V6.645h3.656v11.622h-3.656zm-.194-16.24a1.994 1.994 0 01.582-1.436c.187-.187.401-.332.64-.436a2.03 2.03 0 01.795-.155c.278 0 .54.052.786.155.245.104.462.246.649.427.188.181.337.398.447.65.11.246.164.51.164.795a1.948 1.948 0 01-.62 1.446 2.102 2.102 0 01-.65.427 2.094 2.094 0 01-.776.145 2.13 2.13 0 01-.815-.155 1.99 1.99 0 01-.64-.427 2.089 2.089 0 01-.417-.64 2.147 2.147 0 01-.145-.796zM142.743 16.045c.342 0 .643-.064.902-.194.258-.136.475-.349.649-.64.175-.291.308-.666.398-1.125.091-.466.136-1.029.136-1.688 0-.653-.045-1.213-.136-1.678-.09-.473-.223-.857-.398-1.155a1.649 1.649 0 00-.649-.65 1.844 1.844 0 00-.902-.213c-.343 0-.644.07-.902.213a1.65 1.65 0 00-.65.65c-.168.298-.297.68-.388 1.145a9.676 9.676 0 00-.126 1.688c0 .271.006.55.019.834.013.285.042.563.088.834.051.265.122.518.213.757.091.233.21.44.359.62.155.182.346.327.572.437.226.104.498.159.815.165zm5.731-3.618c0 .983-.129 1.853-.388 2.61-.252.756-.623 1.393-1.115 1.91a4.777 4.777 0 01-1.804 1.165c-.704.265-1.513.397-2.424.397-.905 0-1.714-.132-2.425-.397a4.784 4.784 0 01-1.804-1.164c-.491-.518-.866-1.155-1.125-1.912-.258-.756-.388-1.626-.388-2.61 0-.995.13-1.875.388-2.638.265-.77.644-1.413 1.135-1.93a4.667 4.667 0 011.804-1.184c.711-.271 1.513-.407 2.405-.407.892 0 1.691.136 2.395.407a4.66 4.66 0 011.804 1.184c.498.517.88 1.16 1.145 1.93.265.763.397 1.643.397 2.639z" fill="#000"/><path fill-rule="evenodd" clip-rule="evenodd" d="M16.42 12.986c2.045-1.185 2.045-4.147 0-5.332L4.6.804C2.555-.383 0 1.098 0 3.468V8.22l.01.055c.042.698.706.806.904.806h2.92c.119 0 .158-.073.119-.146l-1.816-5.17c-.04-.218.08-.4.316-.4h1.105c.237 0 .434.11.553.291l3.354 5.207a.44.44 0 00.395.218h3.79c2.13 0 2.17 2.476 0 2.476H7.86c-.158 0-.316.036-.395.182l-3.354 5.242a.642.642 0 01-.553.291H2.453c-.237 0-.355-.182-.316-.4l1.816-5.17c.079-.109 0-.145-.119-.145H.914c-.198 0-.82.126-.908.838L0 12.398v4.773c0 2.37 2.555 3.85 4.6 2.666l11.82-6.851z" fill="url(#paint0_linear)"/><defs><linearGradient id="paint0_linear" x1="18.951" y1="10.32" x2="-5.985" y2="10.32" gradientUnits="userSpaceOnUse"><stop stop-color="#85D5F4"/><stop offset="1" stop-color="#60AAC8"/></linearGradient></defs></svg>
